X:66
T:Blind Manâ€™s Ramble,The. JBi.65
T:Chips and Shavins,aka. JBi.65
M:2/4
L:1/8
Q:1/4=180
S:James Biggins MS, Leeds, 1779.
R:.Reel
O:England
A:Yorkshire
Z:vmp.Nick Barber & Chris Partington
K:D
â€œ_Key C in MSâ€(B/c/)|dABF|G2 (FE)|DFAF|GEE B/c/|\
dABF|G2FE|DFAG|FDD:|!
|:(F/G/)|ABAF|G2(FE)|ABAF|GEE (F/G/)|\
ABAF|G2(FE)|DFAF|FDD:|!
|:c|dfaf|g2fe|dfaf|geef|dfaf|g2fe|dAAG|FEEc||!
dfaf|g2fe|dfaf|gee(f/e/)|afge|fdec|(B/c/d)AG|FDD|]

